X:1
T: Miss Ogilvie's Fancy
C:
R:Strathspey
Q: 128
K:Bb
M:4/4
L:1/16
|:B3c B2b2 gfed edcB|ABcB A2F2 F2c2 c4|B3c B2b2 gfed edcB|ABcB A2F2 G2B2 B4|
B3c B2b2 gfed edcB|ABcB A2F2 F2c2 c4|B3c B2b2 gfed edcB|ABcB A2F2 G2B2 B4|
D3F B2F2 G2e2 F2d2|E3F GFED C2c2 c4|D3F B2F2 G2e2 F2d2|E3G FEDC B,2B2 B4|
D3F B2F2 G2e2 F2d2|E2g2 D2f2 C2c2 c4|B3d g2b2 gfed edcB|ABcB A2F2 G2B2 B4:|
